src/images/mattatar.svg

<svg xmlns="http://www.w3.org/2000/svg" xmlns:xlink="http://www.w3.org/1999/xlink" width="200" height="200">
  <defs>
    <path id="a" d="M.06 0H200v200H.06z"/>
    <path id="c" d="m14.413 141.764.521-60.464S-.532 49.236.444 45.451C1.42 41.668 29.207.658 29.207.658l53.677 7.715s25.956 53.186 20.164 80.241c-5.793 27.055-53.144 13.652-53.144 13.652l17.674 37.153-53.165 2.345"/>
    <path id="e" d="M.178.524h184.035V135H.178z"/>
    <path id="g" d="M116.698 65.417S95.54 77.193 78.774 80.619c-15.257 3.119-23.789-7.577-23.789-7.577S41.184 57.168 42.869 28.175C43.704 13.79 70.154 13.82 86.135 13.85c10.118.019 16.04.039 8.609-3.601C47.973-12.654-.925 9.407.375 43.815c.688 18.231 10.32 46.414 29.401 59.753l.158-18.268s-15.686-19.381-7.683-23.97c9.698-5.561 17.183 12.234 20.618 17.088 0 0 4.518 10.094 11.527 24.367 4.844 9.866 20.317 23.191 45.689 15.829 23.32-6.766 24.286-34.385 16.613-53.197"/>
  </defs>
  <g fill="none" fill-rule="evenodd">
    <mask id="b" fill="#fff">
      <use xlink:href="#a"/>
    </mask>
    <path fill="#0B8F5F" d="M.06 200H200V0H.06z" mask="url(#b)"/>
    <path fill="#136747" d="M60.711 225.553c11.434-3.504 22.016-8.643 27.905-17.618 9.835-14.988 8.986-35.245 7.206-52.315-3.135-30.067-14.311-75.206-50.554-79.595l-1.166-1.824c-7.031 8.33-12.46 19.257-10.625 30.442 2.018 12.304 10.597 16.076 17.82 24.536 12.311 14.419-6.172 29.088-18.739 35.167C14.408 173.125.487 184.619 0 206.265c-.186 8.297 2.203 15.588 6.702 20.564 17.994-.703 36-1.118 54.009-1.276" mask="url(#b)"/>
    <path fill="#E9846F" d="m69.413 170.764.521-60.464s-15.466-32.064-14.49-35.849c.976-3.783 28.763-44.793 28.763-44.793l53.677 7.715s25.956 53.186 20.164 80.241c-5.793 27.055-53.144 13.652-53.144 13.652l17.674 37.153-53.165 2.345"/>
    <g transform="translate(55 29)">
      <mask id="d" fill="#fff">
        <use xlink:href="#c"/>
      </mask>
      <path fill="#E26363" d="M34.696 89.08s10.5 40.933 10.887 42.08c8.528 25.283 31.748 8.228 27.627-5.448L49.071 89.08H34.696" mask="url(#d)"/>
    </g>
    <path fill="#0F1E18" d="M109.299 81.969c.886 3.847-.102 7.364-2.209 7.854-2.105.49-4.53-2.232-5.416-6.08-.885-3.847.104-7.363 2.209-7.853 2.106-.49 4.531 2.231 5.416 6.079M145.388 73.465c.886 3.847-.102 7.363-2.209 7.854-2.105.489-4.53-2.232-5.416-6.079-.885-3.848.104-7.364 2.209-7.854 2.106-.49 4.531 2.231 5.416 6.079"/>
    <path fill="#0F1E18" d="m125.208 97.526 8.822-4.375c.318-.158.552-.441.646-.784a1.239 1.239 0 0 0-.154-1.004L119.86 68.704l-1.043.675 1.055-.656c-.064-.101-.956-1.51-2.963-2.913-2.002-1.404-5.137-2.778-9.526-2.774-4.833.001-11.138 1.641-19.22 6.511a1.244 1.244 0 0 0 1.283 2.129c7.811-4.707 13.678-6.155 17.937-6.155 3.872.004 6.454 1.18 8.103 2.327a10.233 10.233 0 0 1 1.779 1.562c.185.208.318.377.4.488l.085.12.015.023.001.001.648-.412-.652.406.004.006.648-.412-.652.406.012.018 13.904 21.489-7.574 3.756a1.243 1.243 0 0 0 1.104 2.227M132.763 63.175l-.126-.087.125.088.001-.001-.126-.087.125.088c.032-.048 1.28-1.812 3.45-3.521 2.177-1.716 5.23-3.352 8.936-3.349 2.144.002 4.536.536 7.198 1.98a1.243 1.243 0 0 0 1.186-2.184c-2.986-1.624-5.818-2.283-8.384-2.282-4.53.003-8.142 2.017-10.591 3.976-2.455 1.965-3.794 3.903-3.84 3.967a1.243 1.243 0 1 0 2.046 1.412"/>
    <path fill="#FFFFFE" d="m115.203 70.001-.331-1.198-24.253 6.688a1.241 1.241 0 0 0-.908 1.297c.005.059.243 3.049 1.395 6.764 1.159 3.707 3.214 8.186 7.059 11.113.376.28.755.396 1.134.475.38.075.774.102 1.199.102 1.455-.004 3.323-.322 5.401-.805a73.413 73.413 0 0 0 9.445-2.95c1.409-.555 2.636-1.102 3.574-1.62.471-.263.869-.513 1.211-.793.171-.142.33-.291.481-.485a1.79 1.79 0 0 0 .368-.826c.138-.919.199-1.837.199-2.744-.004-4.114-1.244-8.003-2.464-10.888-1.224-2.884-2.44-4.763-2.467-4.806a1.249 1.249 0 0 0-1.374-.522l.331 1.198-1.043.676.008.013c.112.175 1.258 2 2.363 4.666 1.109 2.665 2.164 6.171 2.16 9.663 0 .795-.053 1.59-.171 2.376l.776.116-.68-.402a.79.79 0 0 0-.096.286l.776.116-.68-.402.337.199-.311-.238-.026.039.337.199-.311-.238-.001.001c-.042.056-.358.305-.819.561-.814.464-2.092 1.04-3.581 1.617a72.153 72.153 0 0 1-7.503 2.419 46.607 46.607 0 0 1-3.562.797c-1.074.19-2.013.293-2.678.292-.311 0-.56-.023-.713-.054l-.148-.04-.01-.004-.089.193.127-.168-.038-.025-.089.193.127-.168c-3.191-2.402-5.12-6.416-6.185-9.869a34.22 34.22 0 0 1-1.05-4.427 28.385 28.385 0 0 1-.193-1.334c-.019-.156-.031-.275-.039-.354l-.008-.087-.002-.022-1.239.098.331 1.198 24.253-6.688-.33-1.198-1.043.676 1.043-.676M151.338 61.4l-.331-1.198-24.254 6.689a1.24 1.24 0 0 0-.908 1.296c.006.059.244 3.05 1.396 6.764 1.159 3.707 3.213 8.186 7.058 11.113.377.28.756.396 1.134.475.381.075.775.102 1.2.102 1.455-.004 3.322-.322 5.4-.805a73.271 73.271 0 0 0 9.446-2.95c1.409-.555 2.636-1.101 3.574-1.62a8.142 8.142 0 0 0 1.211-.793c.171-.142.33-.291.481-.485.146-.195.305-.443.367-.826.138-.919.199-1.836.199-2.743-.004-4.114-1.244-8.003-2.464-10.889-1.223-2.884-2.44-4.763-2.467-4.806a1.247 1.247 0 0 0-1.373-.522l.331 1.198-1.043.676.008.013c.112.175 1.258 2 2.363 4.667 1.108 2.665 2.164 6.171 2.16 9.663 0 .795-.054 1.589-.172 2.375l.777.116-.68-.402a.798.798 0 0 0-.097.285l.777.117-.68-.402.336.199-.31-.238-.026.039.336.199-.31-.238-.001.001c-.042.056-.358.305-.819.561-.814.464-2.092 1.04-3.581 1.617a72.095 72.095 0 0 1-7.504 2.419 46.082 46.082 0 0 1-3.561.796c-1.074.191-2.013.294-2.678.293-.311 0-.561-.023-.714-.054l-.148-.04-.01-.004-.088.192.127-.167-.039-.025-.088.192.127-.167c-3.192-2.402-5.121-6.415-6.186-9.869a34.172 34.172 0 0 1-1.05-4.426 28.39 28.39 0 0 1-.231-1.689l-.009-.087-.002-.022-1.238.099.33 1.198 24.254-6.689-.33-1.198-1.043.676 1.043-.676"/>
    <g transform="translate(2 65)">
      <mask id="f" fill="#fff">
        <use xlink:href="#e"/>
      </mask>
      <path fill="#FFFFFE" d="m114.121 5.839-.06-.055.059.056.001-.001-.06-.055.059.056c.039-.043.741-.782 1.847-1.482 1.109-.705 2.599-1.352 4.228-1.348 1.115.003 2.314.283 3.633 1.102a1.243 1.243 0 0 0 1.316-2.109C123.455.946 121.748.521 120.195.524c-2.359.004-4.321.931-5.689 1.818-1.371.894-2.173 1.77-2.221 1.822a1.242 1.242 0 1 0 1.836 1.675" mask="url(#f)"/>
      <path fill="#E9C0D1" d="M78.076 160.473c35.4.038 70.78.995 106.137 2.551-20.709-40.054-67.978-68.736-67.978-68.736s-29.884 8.581-49.157.326c.6-.332-44.972 19.656-66.9 67.41 25.949-1.084 51.924-1.58 77.898-1.551" mask="url(#f)"/>
    </g>
    <path fill="#0F1E18" d="M156.698 90.417s-21.158 11.776-37.924 15.202c-15.257 3.119-23.789-7.577-23.789-7.577S81.184 82.168 82.869 53.175c.835-14.385 27.285-14.355 43.266-14.325 10.118.019 16.04.039 8.609-3.601-46.771-22.903-95.669-.842-94.369 33.566.688 18.231 10.32 46.414 29.401 59.753l.158-18.268s-15.686-19.381-7.683-23.97c9.698-5.561 17.183 12.234 20.618 17.088 0 0 4.518 10.094 11.527 24.367 4.844 9.866 20.317 23.191 45.689 15.829 23.32-6.766 24.286-34.385 16.613-53.197"/>
    <g transform="translate(40 25)">
      <mask id="h" fill="#fff">
        <use xlink:href="#g"/>
      </mask>
      <path fill="#E9846F" d="m43.653 24.749-65.029 7.592S15.4 152.608 46.892 87.15l14.458-9.046S47.116 63.822 45.384 44.285c-1.731-19.536-2.153-13.381-1.731-19.536" mask="url(#h)"/>
      <path fill="#393A2D" d="M29.776 103.568C13.607 92.265 4.222 70.3 1.316 52.766.793 49.609.48 46.597.375 43.815a34.815 34.815 0 0 1-.026-1.329 33.88 33.88 0 0 1 2.556-12.98l40.734-4.755a10.387 10.387 0 0 0-.77 3.424 84.155 84.155 0 0 0-.143 4.88c.003 25.89 12.259 39.987 12.259 39.987s2.2 2.758 6.362 5.064L46.892 87.15c-2.557-5.457-4.023-8.732-4.023-8.732-2.979-4.21-9.004-18.152-16.878-18.152-1.204 0-2.454.326-3.74 1.064-1.079.619-1.728 1.506-2.042 2.579a6.308 6.308 0 0 0-.233 1.762c-.003 7.322 9.958 19.629 9.958 19.629l-.158 18.268" mask="url(#h)"/>
      <path fill="#0F1E18" d="M20.948 64.218c-.752-.311-1.229.83-1.209 1.642.105 4.385 1.559 8.628 2.005 12.992.447 4.363-.383 9.289-3.825 12.008-2.965 2.343-7.058 2.458-10.836 2.47.266 4.297 2.643 8.144 5.047 11.717 1.741 2.585 3.638 5.231 6.398 6.678 2.748 1.442 5.985 1.504 9.088 1.526 3.996.026 8.586-.237 11.039-3.392 1.34-1.723 1.738-3.988 1.916-6.165.699-8.488-1.343-17.18-5.749-24.469-2.924-4.838-6.813-9.008-10.672-13.14-.255-.273-.55-.566-.924-.583-.374-.017-.742.446-.5.732" mask="url(#h)"/>
      <path fill="#0A0B09" d="M117.266 65.815s7.288 53.419-58.771 43.982c0 0-.42 19.612 32.467 22.106 32.885 2.494 56.184-10.148 56.184-10.148l7.166-36.36-14.491-21.837-9.392-3.125-13.163 5.382" mask="url(#h)"/>
    </g>
    <path fill="#FFFFFE" d="M140.848 105.78c-.707 1.898-2.096 3.528-3.899 4.685a11.689 11.689 0 0 1-6.277 1.829c-2.193-.001-4.447-.617-6.525-2.026a1.244 1.244 0 0 0-1.396 2.057 14.036 14.036 0 0 0 7.921 2.455 14.17 14.17 0 0 0 7.62-2.223c2.202-1.414 3.966-3.446 4.885-5.909a1.242 1.242 0 1 0-2.329-.868"/>
    <path fill="#0A0B09" d="M129.108 118.794s8.464 1.068 12.904-3.565c0 0-.668 5.941-3.934 6.653-3.268.713-8.97-3.088-8.97-3.088"/>
    <path fill="#FFFFFE" d="M90.226 75.679 58.137 98.666a1.243 1.243 0 0 0 1.447 2.021L91.673 77.7a1.244 1.244 0 0 0-1.447-2.021"/>
    <path fill="#E9846F" d="M69.933 110.429S52.517 91.635 61.53 85.718c9.015-5.917 17.545 11.985 17.545 11.985l-9.142 12.726"/>
  </g>
</svg>

<?xml version="1.0" encoding="UTF-8"?>
<svg width="200px" height="200px" viewBox="0 0 200 200" version="1.1" xmlns="http://www.w3.org/2000/svg" xmlns:xlink="http://www.w3.org/1999/xlink">
    <defs>
        <polygon id="path-1" points="0.06 0 200 0 200 200 0.06 200"></polygon>
        <path d="M14.413,141.764 L14.934,81.3 C14.934,81.3 -0.532,49.236 0.444,45.451 C1.42,41.668 29.207,0.658 29.207,0.658 L82.884,8.373 C82.884,8.373 108.84,61.559 103.048,88.614 C97.255,115.669 49.904,102.266 49.904,102.266 L67.578,139.419 L14.413,141.764" id="path-3"></path>
        <polygon id="path-5" points="0.178 0.523984238 184.213 0.523984238 184.213 135 0.178 135"></polygon>
        <path d="M116.698,65.417 C116.698,65.417 95.54,77.193 78.774,80.619 C63.517,83.738 54.985,73.042 54.985,73.042 C54.985,73.042 41.184,57.168 42.869,28.175 C43.704,13.79 70.154,13.82 86.135,13.85 C96.253,13.869 102.175,13.889 94.744,10.249 C47.973,-12.654 -0.925,9.407 0.375,43.815 C1.063,62.046 10.695,90.229 29.776,103.568 L29.934,85.3 C29.934,85.3 14.248,65.919 22.251,61.33 C31.949,55.769 39.434,73.564 42.869,78.418 C42.869,78.418 47.387,88.512 54.396,102.785 C59.24,112.651 74.713,125.976 100.085,118.614 C123.405,111.848 124.371,84.229 116.698,65.417" id="path-7"></path>
    </defs>
    <g id="mattatar" stroke="none" stroke-width="1" fill="none" fill-rule="evenodd">
        <g id="Group-4">
            <mask id="mask-2" fill="white">
                <use xlink:href="#path-1"></use>
            </mask>
            <g id="Clip-2"></g>
            <polygon id="Fill-1" fill="#0B8F5F" mask="url(#mask-2)" points="0.06 200 200 200 200 0 0.06 0"></polygon>
            <path d="M60.711,225.553 C72.145,222.049 82.727,216.91 88.616,207.935 C98.451,192.947 97.602,172.69 95.822,155.62 C92.687,125.553 81.511,80.414 45.268,76.025 L44.102,74.201 C37.071,82.531 31.642,93.458 33.477,104.643 C35.495,116.947 44.074,120.719 51.297,129.179 C63.608,143.598 45.125,158.267 32.558,164.346 C14.408,173.125 0.487,184.619 0,206.265 C-0.186,214.562 2.203,221.853 6.702,226.829 C24.696,226.126 42.702,225.711 60.711,225.553" id="Fill-3" fill="#136747" mask="url(#mask-2)"></path>
        </g>
        <path d="M69.413,170.764 L69.934,110.3 C69.934,110.3 54.468,78.236 55.444,74.451 C56.42,70.668 84.207,29.658 84.207,29.658 L137.884,37.373 C137.884,37.373 163.84,90.559 158.048,117.614 C152.255,144.669 104.904,131.266 104.904,131.266 L122.578,168.419 L69.413,170.764" id="Fill-5" fill="#E9846F"></path>
        <g id="Group-8" transform="translate(55.000000, 29.000000)">
            <mask id="mask-4" fill="white">
                <use xlink:href="#path-3"></use>
            </mask>
            <g id="Clip-7"></g>
            <path d="M34.696,89.08 C34.696,89.08 45.196,130.013 45.583,131.16 C54.111,156.443 77.331,139.388 73.21,125.712 L49.071,89.08 L34.696,89.08" id="Fill-6" fill="#E26363" mask="url(#mask-4)"></path>
        </g>
        <path d="M109.299,81.969 C110.185,85.816 109.197,89.333 107.09,89.823 C104.985,90.313 102.56,87.591 101.674,83.743 C100.789,79.896 101.778,76.38 103.883,75.89 C105.989,75.4 108.414,78.121 109.299,81.969" id="Fill-9" fill="#0F1E18"></path>
        <path d="M145.388,73.465 C146.274,77.312 145.286,80.828 143.179,81.319 C141.074,81.808 138.649,79.087 137.763,75.24 C136.878,71.392 137.867,67.876 139.972,67.386 C142.078,66.896 144.503,69.617 145.388,73.465" id="Fill-10" fill="#0F1E18"></path>
        <path d="M125.208,97.526 L134.03,93.151 C134.348,92.993 134.582,92.71 134.676,92.367 C134.771,92.025 134.714,91.661 134.522,91.363 L119.86,68.704 L118.817,69.379 L119.872,68.723 C119.808,68.622 118.916,67.213 116.909,65.81 C114.907,64.406 111.772,63.032 107.383,63.0359913 C102.55,63.037 96.245,64.677 88.163,69.547 C87.576,69.901 87.386,70.665 87.74,71.253 C88.095,71.841 88.858,72.03 89.446,71.676 C97.257,66.969 103.124,65.521 107.383,65.521 C111.255,65.525 113.837,66.701 115.486,67.848 C116.309,68.422 116.893,68.993 117.265,69.41 C117.45,69.618 117.583,69.787 117.665,69.898 L117.75,70.018 L117.765,70.041 L117.766,70.042 L118.414,69.63 L117.762,70.0359913 L117.766,70.042 L118.414,69.63 L117.762,70.0359913 L117.774,70.054 L131.678,91.543 L124.104,95.299 C123.489,95.604 123.238,96.35 123.543,96.965 C123.847,97.579 124.593,97.831 125.208,97.526" id="Fill-11" fill="#0F1E18"></path>
        <path d="M132.763,63.175 L132.637,63.088 L132.762,63.176 L132.763,63.175 L132.637,63.088 L132.762,63.176 C132.794,63.128 134.042,61.364 136.212,59.655 C138.389,57.939 141.442,56.303 145.148,56.306 C147.292,56.308 149.684,56.842 152.346,58.286 C152.949,58.613 153.704,58.39 154.031,57.787 C154.359,57.184 154.135,56.429 153.532,56.102 C150.546,54.478 147.714,53.819 145.148,53.8199989 C140.618,53.823 137.006,55.837 134.557,57.796 C132.102,59.761 130.763,61.699 130.717,61.763 C130.327,62.328 130.469,63.102 131.034,63.492 C131.599,63.882 132.373,63.74 132.763,63.175" id="Fill-12" fill="#0F1E18"></path>
        <path d="M115.203,70.001 L114.872,68.803 L90.619,75.491 C90.044,75.65 89.663,76.193 89.711,76.788 C89.716,76.847 89.954,79.837 91.106,83.552 C92.265,87.259 94.32,91.738 98.165,94.665 C98.541,94.945 98.92,95.061 99.299,95.14 C99.679,95.215 100.073,95.242 100.498,95.242 C101.953,95.238 103.821,94.92 105.899,94.437 C109.006,93.708 112.529,92.591 115.344,91.487 C116.753,90.932 117.98,90.385 118.918,89.867 C119.389,89.604 119.787,89.354 120.129,89.074 C120.3,88.932 120.459,88.783 120.61,88.589 C120.756,88.394 120.915,88.147 120.978,87.763 C121.116,86.844 121.177,85.926 121.177,85.019 C121.173,80.905 119.933,77.016 118.713,74.131 C117.489,71.247 116.273,69.368 116.246,69.325 C115.952,68.872 115.393,68.66 114.872,68.803 L115.203,70.001 L114.16,70.677 L114.168,70.69 C114.28,70.865 115.426,72.69 116.531,75.356 C117.64,78.021 118.695,81.527 118.691,85.019 C118.691,85.814 118.638,86.609 118.52,87.395 L119.296,87.511 L118.616,87.109 C118.591,87.154 118.543,87.242 118.52,87.395 L119.296,87.511 L118.616,87.109 L118.953,87.308 L118.642,87.07 L118.616,87.109 L118.953,87.308 L118.642,87.07 L118.641,87.071 C118.599,87.127 118.283,87.376 117.822,87.632 C117.008,88.096 115.73,88.672 114.241,89.249 C112.004,90.118 109.272,91.005 106.738,91.668 C105.471,91.999 104.253,92.274 103.176,92.465 C102.102,92.655 101.163,92.758 100.498,92.757 C100.187,92.757 99.938,92.734 99.785,92.703 L99.637,92.663 L99.627,92.659 L99.538,92.852 L99.665,92.684 L99.627,92.659 L99.538,92.852 L99.665,92.684 C96.474,90.282 94.545,86.268 93.48,82.815 C92.945,81.092 92.62,79.521 92.43,78.388 C92.335,77.822 92.274,77.365 92.237,77.054 C92.218,76.898 92.206,76.779 92.198,76.7 L92.19,76.613 L92.188,76.591 L90.949,76.689 L91.28,77.887 L115.533,71.199 L115.203,70.001 L114.16,70.677 L115.203,70.001" id="Fill-13" fill="#FFFFFE"></path>
        <path d="M151.338,61.4 L151.007,60.202 L126.753,66.891 C126.178,67.049 125.797,67.593 125.845,68.187 C125.851,68.246 126.089,71.237 127.241,74.951 C128.4,78.658 130.454,83.137 134.299,86.064 C134.676,86.344 135.055,86.46 135.433,86.539 C135.814,86.614 136.208,86.641 136.633,86.641 C138.088,86.637 139.955,86.319 142.033,85.836 C145.141,85.107 148.663,83.991 151.479,82.886 C152.888,82.331 154.115,81.785 155.053,81.266 C155.524,81.004 155.922,80.753 156.264,80.473 C156.435,80.331 156.594,80.182 156.745,79.988 C156.891,79.793 157.05,79.545 157.112,79.162 C157.25,78.243 157.311,77.326 157.311,76.419 C157.307,72.305 156.067,68.416 154.847,65.53 C153.624,62.646 152.407,60.767 152.38,60.724 C152.086,60.271 151.528,60.059 151.007,60.202 L151.338,61.4 L150.295,62.076 L150.303,62.089 C150.415,62.264 151.561,64.089 152.666,66.756 C153.774,69.421 154.83,72.927 154.826,76.419 C154.826,77.214 154.772,78.008 154.654,78.794 L155.431,78.91 L154.751,78.508 C154.726,78.552 154.678,78.641 154.654,78.793 L155.431,78.91 L154.751,78.508 L155.087,78.707 L154.777,78.469 L154.751,78.508 L155.087,78.707 L154.777,78.469 L154.776,78.47 C154.734,78.526 154.418,78.775 153.957,79.031 C153.143,79.495 151.865,80.071 150.376,80.648 C148.139,81.517 145.407,82.404 142.872,83.067 C141.606,83.398 140.387,83.673 139.311,83.863 C138.237,84.054 137.298,84.157 136.633,84.156 C136.322,84.156 136.072,84.133 135.919,84.102 L135.771,84.062 L135.761,84.058 L135.673,84.25 L135.8,84.083 L135.761,84.058 L135.673,84.25 L135.8,84.083 C132.608,81.681 130.679,77.668 129.614,74.214 C129.079,72.492 128.754,70.921 128.564,69.788 C128.469,69.221 128.408,68.765 128.371,68.453 C128.353,68.297 128.34,68.178 128.333,68.099 L128.324,68.012 L128.322,67.99 L127.084,68.089 L127.414,69.287 L151.668,62.598 L151.338,61.4 L150.295,62.076 L151.338,61.4" id="Fill-14" fill="#FFFFFE"></path>
        <g id="Group-18" transform="translate(2.000000, 65.000000)">
            <mask id="mask-6" fill="white">
                <use xlink:href="#path-5"></use>
            </mask>
            <g id="Clip-16"></g>
            <path d="M114.121,5.839 L114.061,5.784 L114.12,5.84 L114.121,5.839 L114.061,5.784 L114.12,5.84 C114.159,5.797 114.861,5.058 115.967,4.358 C117.076,3.653 118.566,3.006 120.195,3.01 C121.31,3.013 122.509,3.293 123.828,4.112 C124.411,4.475 125.177,4.297 125.541,3.715 C125.904,3.133 125.726,2.366 125.144,2.003 C123.455,0.946 121.748,0.521 120.195,0.523984238 C117.836,0.528 115.874,1.455 114.506,2.342 C113.135,3.236 112.333,4.112 112.285,4.164 C111.822,4.671 111.858,5.457 112.365,5.919 C112.872,6.382 113.658,6.346 114.121,5.839" id="Fill-15" fill="#FFFFFE" mask="url(#mask-6)"></path>
            <path d="M78.076,160.473 C113.476,160.511 148.856,161.468 184.213,163.024 C163.504,122.97 116.235,94.288 116.235,94.288 C116.235,94.288 86.351,102.869 67.078,94.614 C67.678,94.282 22.106,114.27 0.178,162.024 C26.127,160.94 52.102,160.444 78.076,160.473" id="Fill-17" fill="#E9C0D1" mask="url(#mask-6)"></path>
        </g>
        <path d="M156.698,90.417 C156.698,90.417 135.54,102.193 118.774,105.619 C103.517,108.738 94.985,98.042 94.985,98.042 C94.985,98.042 81.184,82.168 82.869,53.175 C83.704,38.79 110.154,38.82 126.135,38.85 C136.253,38.869 142.175,38.889 134.744,35.249 C87.973,12.346 39.075,34.407 40.375,68.815 C41.063,87.046 50.695,115.229 69.776,128.568 L69.934,110.3 C69.934,110.3 54.248,90.919 62.251,86.33 C71.949,80.769 79.434,98.564 82.869,103.418 C82.869,103.418 87.387,113.512 94.396,127.785 C99.24,137.651 114.713,150.976 140.085,143.614 C163.405,136.848 164.371,109.229 156.698,90.417" id="Fill-19" fill="#0F1E18"></path>
        <g id="Group-25" transform="translate(40.000000, 25.000000)">
            <mask id="mask-8" fill="white">
                <use xlink:href="#path-7"></use>
            </mask>
            <g id="Clip-21"></g>
            <path d="M43.653,24.749 L-21.376,32.341 C-21.376,32.341 15.4,152.608 46.892,87.15 L61.35,78.104 C61.35,78.104 47.116,63.822 45.384,44.285 C43.653,24.749 43.231,30.904 43.653,24.749" id="Fill-20" fill="#E9846F" mask="url(#mask-8)"></path>
            <path d="M29.776,103.568 L29.776,103.568 C13.607,92.265 4.222,70.3 1.316,52.766 C0.793,49.609 0.48,46.597 0.375,43.815 C0.358,43.37 0.348999161,42.927 0.348999161,42.486 C0.348,37.901 1.241,33.549 2.905,29.506 L43.639,24.751 C43.206,25.79 42.941,26.928 42.869,28.175 C42.772,29.845 42.726,31.472 42.726,33.055 C42.729,58.945 54.985,73.042 54.985,73.042 C54.985,73.042 57.185,75.8 61.347,78.106 L46.892,87.15 C44.335,81.693 42.869,78.418 42.869,78.418 C39.89,74.208 33.865,60.266 25.991,60.266 C24.787,60.266 23.537,60.592 22.251,61.33 C21.172,61.949 20.523,62.836 20.209,63.909 C20.05,64.452 19.977,65.044 19.976,65.671 C19.973,72.993 29.934,85.3 29.934,85.3 L29.776,103.568" id="Fill-22" fill="#393A2D" mask="url(#mask-8)"></path>
            <path d="M20.948,64.218 C20.196,63.907 19.719,65.048 19.739,65.86 C19.844,70.245 21.298,74.488 21.744,78.852 C22.191,83.215 21.361,88.141 17.919,90.86 C14.954,93.203 10.861,93.318 7.083,93.33 C7.349,97.627 9.726,101.474 12.13,105.047 C13.871,107.632 15.768,110.278 18.528,111.725 C21.276,113.167 24.513,113.229 27.616,113.251 C31.612,113.277 36.202,113.014 38.655,109.859 C39.995,108.136 40.393,105.871 40.571,103.694 C41.27,95.206 39.228,86.514 34.822,79.225 C31.898,74.387 28.009,70.217 24.15,66.085 C23.895,65.812 23.6,65.519 23.226,65.502 C22.852,65.485 22.484,65.948 22.726,66.234" id="Fill-23" fill="#0F1E18" mask="url(#mask-8)"></path>
            <path d="M117.266,65.815 C117.266,65.815 124.554,119.234 58.4947395,109.797 C58.4947395,109.797 58.075,129.409 90.962,131.903 C123.847,134.397 147.146,121.755 147.146,121.755 L154.312,85.395 L139.821,63.558 L130.429,60.433 L117.266,65.815" id="Fill-24" fill="#0A0B09" mask="url(#mask-8)"></path>
        </g>
        <path d="M140.848,105.78 C140.141,107.678 138.752,109.308 136.949,110.465 C135.148,111.622 132.944,112.295 130.672,112.294 C128.479,112.293 126.225,111.677 124.147,110.268 C123.579,109.883 122.806,110.031 122.421,110.598 C122.035,111.166 122.183,111.939 122.751,112.325 C125.247,114.02 128.011,114.781 130.672,114.780001 C133.433,114.779 136.087,113.971 138.292,112.557 C140.494,111.143 142.258,109.111 143.177,106.648 C143.417,106.005 143.089,105.289 142.446,105.05 C141.803,104.81 141.088,105.137 140.848,105.78" id="Fill-26" fill="#FFFFFE"></path>
        <path d="M129.108,118.794 C129.108,118.794 137.572,119.862 142.012,115.229 C142.012,115.229 141.344,121.17 138.078,121.882 C134.81,122.595 129.108,118.794 129.108,118.794" id="Fill-27" fill="#0A0B09"></path>
        <path d="M90.226,75.679 L58.137,98.666 C57.579,99.066 57.451,99.842 57.85,100.4 C58.25,100.958 59.026,101.087 59.584,100.687 L91.673,77.7 C92.231,77.3 92.359,76.523 91.96,75.966 C91.56,75.408 90.784,75.279 90.226,75.679" id="Fill-28" fill="#FFFFFE"></path>
        <path d="M69.933,110.429 C69.933,110.429 52.517,91.635 61.53,85.718 C70.545,79.801 79.075,97.703 79.075,97.703 L69.933,110.429" id="Fill-29" fill="#E9846F"></path>
    </g>
</svg>
